assets/icons/menu_legal.svg

<svg id="a" xmlns="http://www.w3.org/2000/svg" width="32" height="32" viewBox="0 0 32 32"><rect width="32" height="32" rx="8" ry="8" fill="#bfd674"/><path d="M9.6,22.51h14.86s.09,0,.13-.02c0,0,0,0,0,0,.32,0,.57-.26,.57-.57V5.67c0-.32-.26-.57-.57-.57H9.6c-1.53,0-2.77,1.24-2.77,2.77,0,.02,0,.04,0,.06,0,1.41-.02,14.4,0,16.11,0,.03,0,.07,0,.1,0,1.47,1.15,2.68,2.6,2.77,.03,0,.06,0,.09,0h15.09c.32,0,.57-.26,.57-.57v-2.16c0-.32-.26-.57-.57-.57s-.57,.26-.57,.57v1.59H9.6c-.87,0-1.59-.69-1.62-1.56,0-.02,0-.03,0-.05,0-.03,0-.06,0-.12,.05-.85,.76-1.53,1.62-1.53Zm.39-14.64c0-.32,.26-.57,.57-.57s.57,.26,.57,.57v11.68c0,.32-.26,.57-.57,.57s-.57-.26-.57-.57V7.87h0Z" fill="#fff"/></svg>

<svg xmlns="http://www.w3.org/2000/svg" width="32" height="32" viewBox="0 0 32 32"><rect width="32" height="32" rx="8" fill="#bfd674"/><path d="M9.6,22.5H24.46a.4.4,0,0,0,.13,0h0a.57.57,0,0,0,.57-.57V5.66a.57.57,0,0,0-.57-.57H9.6A2.77,2.77,0,0,0,6.83,7.86v.06c0,1.41,0,14.4,0,16.12v.1a2.79,2.79,0,0,0,2.6,2.77H24.61a.57.57,0,0,0,.57-.57V24.18a.57.57,0,0,0-.57-.57.58.58,0,0,0-.57.57v1.59H9.6A1.62,1.62,0,0,1,8,24.21V24A1.65,1.65,0,0,1,9.6,22.5ZM10,7.86a.57.57,0,0,1,.57-.57.58.58,0,0,1,.57.57V19.54a.57.57,0,0,1-.57.57.58.58,0,0,1-.57-.57V7.86Z" fill="#fff"/></svg>
